icons/breezeLight/actions/22/zoom-original.svg

<svg viewBox="0 0 22 22" xmlns="http://www.w3.org/2000/svg"><path d="m3 3v1 2h1v-2h2v-1h-2zm13 0v1h2v2h1v-2-1h-1zm-11 2v12h12v-12zm1 1h10v10h-10zm-3 10v2 1h3v-1h-2v-2zm15 0v2h-2v1h3v-3z" fill="#4d4d4d"/></svg>

<svg xmlns="http://www.w3.org/2000/svg" viewBox="0 0 22 22">
  <defs id="defs3051">
    <style type="text/css" id="current-color-scheme">
      .ColorScheme-Text {
        color:#4d4d4d;
      }
      </style>
  </defs>
 <path 
    style="fill:currentColor;fill-opacity:1;stroke:none" 
	d="M 3 3 L 3 4 L 3 6 L 4 6 L 4 4 L 6 4 L 6 3 L 4 3 L 3 3 z M 16 3 L 16 4 L 18 4 L 18 6 L 19 6 L 19 4 L 19 3 L 18 3 L 16 3 z M 5 5 L 5 17 L 17 17 L 17 5 L 5 5 z M 6 6 L 16 6 L 16 16 L 6 16 L 6 6 z M 3 16 L 3 18 L 3 19 L 6 19 L 6 18 L 4 18 L 4 16 L 3 16 z M 18 16 L 18 18 L 16 18 L 16 19 L 19 19 L 19 16 L 18 16 z "
	class="ColorScheme-Text"
    />  
</svg>
